X:1
T:Daffy, Don't You -- Reel
R:reel
B:Ryan's Mammoth Collection
Z: Contributed by Ray Davies,  ray:davies99.freeserve.co.uk
M:2/4
L:1/16
K:Bb
uF2|
Bdfa bfgf | edcB AcFE | DFBd DFBd | EGBe EGBe |
Bdfa bfgf | edcB AcFE | DFBd EGce | CFAc B2::
u(FE)|
(DF)(BF) (dF)(BF) | .D.F.B.F .d.F.B.F |\
(EG)(BG) (eG)(BG) | .E.G.B.G .e.G.B.G |
(DF)(BF) (dF)(BF) | .D.F.B.F .d.F.B.F |\
.e.A.c.e .e.A.c.e | .e.c.A.c  B2     :|
